!!!COM: Er, Nie
!!!CDT: 1912-1935
!!!OTL: National Anthem, China (March of the Volunteers)
!!!ENC: Davis, Matthew J.
!!Vocal Line Only
**kern
*clefG2
*k[f#]
*G:
*M2/4
=1-
1r
=2
1r
=3
1r
=4
1r
=5
1r
=6
4r
8r
8d
=7
4.g
8g
=8
8.g
16g
8d
16e
16f#
=9
4g
4g
=10
8r
8b
8g
16a
16b
=11
4dd
4dd
=12
8.b
16b
8.g
16b
=13
8.dd
16b
4a
=14
2a
=15
4ee
4dd
=16
4a
4b
=17
8dd
8b
8r
8dd
=18
8b
16a
16b
4g
=19
4b
4r
=20
8.d
16e
8g
8g
=21
8.b
16b
8dd
8dd
=22
8a
16a
16a
4e
=23
4.a
8d
=24
4.g
8g
=25
4.b
8b
=26
2dd
=27
8.g
16b
8dd
8dd
=28
4ee
4dd
=29
8.b
16g
6dd
6dd
6dd
=30
8b
8r
8g
8r
=31
4d
4g
=32
8.b
16g
6dd
6dd
6dd
=33
8b
8r
8g
8r
=34
4d
4g
=35
4d
4g
=36
4d
4g
=37
4g
4r
==|!
*-
